X:1
T:Title
%%score { 1 | ( 2 3 ) }
L:1/8
M:3/4
K:Bb
V:1 treble nm="Grand Piano"
V:2 bass 
V:3 bass 
V:1
 z2 z2 z[Q:1/4=92] [DF] | [DF]>[EG] [DF]3 D | F>=E _E3 E | A>A A3 c | [DB]>[_DG] [=DF]3 [DF] | %5
 [Fd]>[Fc] [FB]3 [F=B] | c>G G3 G | [=Ec]>[Ed] [Ec]2 [EG]2 |[M:9/8] A3 G3 F3 | %9
[M:3/4] B2 [DB]3 [FA] | [FA]>G G4 | c2 c3 A | [_DG]>[=DF] [DF]4 | [Fd]2 [^Fd]3 [Ac] | %14
 [Ac]>[GB] [GB][GB] [FA]G | F4 B2 |[M:15/16] c3 [DB]3/2- [DB]3 |] %17
V:2
 z2 z2 z [B,,B,] | [B,,B,]>[B,,B,] [B,,B,]3 [B,,F,B,] | [F,B,D]>[F,G,_D] [F,A,C]3 [F,A,C] | %3
 [F,CE]>[F,CE] [F,CE]3 [F,A,E] | [B,,B,]>[B,,B,] [B,,B,]3 [B,,B,] | [B,,B,]>[C,A,] [D,B,]3 [D,G,] | %6
 [E,G,E]>[E,B,E] [E,B,E]3 [E,B,E] | [C,B,]>[C,B,] [C,B,]2 [C,C]2 |[M:9/8] [CE]6 z3 | %9
[M:3/4] [B,D]2 [B,,B,]3 [D,B,] | [E,B,]>[E,B,E] [E,B,E]4 | [F,A,E]2 [F,A,E]3 [F,CE] | %12
 [B,,B,]>[B,,B,] [B,,B,]4 | [B,,B,]2 [D,A,]3 [D,D] | [G,D]>[G,D] [G,D][E,E] [E,B,][E,B,E] | %15
 [F,B,D]4 [F,B,D]2 |[M:15/16] [F,A,E]3 [B,,F,B,]3/2- [B,,F,B,]3 |] %17
V:3
 x6 | x6 | x6 | x6 | x6 | x6 | x6 | x6 |[M:9/8] F,3 G,3 [A,CE]3 |[M:3/4] x6 | x6 | x6 | x6 | x6 | %14
 x6 | x6 |[M:15/16] x15/2 |] %17

